PortableApps/LibreOfficePortable/App/libreoffice/help/media/icon-themes/cmd/lc_signature.svg

<svg viewBox="0 0 24 24" xmlns="http://www.w3.org/2000/svg"><path d="m5 3v18h7v-3c0-1.090703.909297-2 2-2v-1c0-2.197294 1.802706-4 4-4 .346993 0 .678233.060164 1 .144531v-4.4160154l-4-3.7285156zm13 11c-.564129 0-1 .435871-1 1v1h2v-1c0-.564129-.435871-1-1-1z" fill="#fff"/><path d="m5 2c-.554 0-1 .446-1 1v18c0 .554.446 1 1 1h7v-1h-7v-18h9v4c0 .554.446 1 1 1h4v3.144531c.355789.093288.689331.233855 1 .416016v-4.310547-.2089844c0-.4506799.098038-.4254121-.605469-1.0664062l-3.30664-3.2382813c-.709525-.7368575-.710169-.7363281-1.09375-.7363281h-.332032-.662109z" fill="#808080"/><path d="m15 7h4l-4-4z" fill="#fff"/><path d="m11.490234 13.001953a.49960701.49845209 0 0 0 -.492187.505859v1.923829a.49960701.49845209 0 0 0 0 .15039v1.91211a.5.49884417 0 0 0 1 0v-1.0625l.46875.3125c.22942-.278251.525685-.496687.869141-.621094l-.9375-.623047 1.664062-1.105469c.038629-.24896.100796-.488733.183594-.720703.000209-.000588-.00021-.001365 0-.001953.081525-.228068.18294-.443198.302734-.650391.002481-.00429.003363-.00939.00586-.013672a.49960701.49845209 0 0 0 -.06836-.001953.49960701.49845209 0 0 0 -.267578.085938l-2.220703 1.476562v-1.060547a.49960701.49845209 0 0 0 -.507813-.505859zm-3.0253902.007813a.49960701.49845209 0 0 0 -.4101563.27539l-1.9980469 3.988282a.49960701.49845209 0 1 0 .8925782.443359l.6113281-1.21875h1.1757812l.2792969 1.117187a.49960701.49845209 0 1 0 .96875-.242187l-1-3.986328a.49960701.49845209 0 0 0 -.46875-.376953.49960701.49845209 0 0 0 -.0507812 0zm-.1191407 1.923828.140625.566406h-.4257812z" fill="#d65532"/><path d="m18 12a3 3 0 0 0 -3 3v2h-1c-.554 0-1 .446-1 1v4c0 .554.446 1 1 1h8c.554 0 1-.446 1-1v-4c0-.554-.446-1-1-1h-1v-2a3 3 0 0 0 -3-3zm0 1a2 2 0 0 1 2 2v2h-4v-2a2 2 0 0 1 2-2z" fill="#eac282"/></svg>

<svg viewBox="0 0 24 24" xmlns="http://www.w3.org/2000/svg">
  <path
     d="m5 3v18h7v-3c0-1.090703.909297-2 2-2v-1c0-2.197294 1.802706-4 4-4 .346993 0 .678233.060164 1 .144531v-4.4160154l-4-3.7285156zm13 11c-.564129 0-1 .435871-1 1v1h2v-1c0-.564129-.435871-1-1-1z"
     fill="#fff" />
  <path
     d="m5 2c-.554 0-1 .446-1 1v18c0 .554.446 1 1 1h7v-1h-7v-18h9v4c0 .554.446 1 1 1h4v3.144531c.355789.093288.689331.233855 1 .416016v-4.310547-.2089844c0-.4506799.098038-.4254121-.605469-1.0664062l-3.30664-3.2382813c-.709525-.7368575-.710169-.7363281-1.09375-.7363281h-.332032-.662109z"
     fill="#808080" />
  <path
     d="m15 7h4l-4-4z"
     fill="#fff" />
  <path
     style="fill:#d65532"
     d="M 11.490234 13.001953 A 0.49960701 0.49845209 0 0 0 10.998047 13.507812 L 10.998047 15.431641 A 0.49960701 0.49845209 0 0 0 10.998047 15.582031 L 10.998047 17.494141 A 0.5 0.49884417 0 0 0 11.998047 17.494141 L 11.998047 16.431641 L 12.466797 16.744141 C 12.696217 16.46589 12.992482 16.247454 13.335938 16.123047 L 12.398438 15.5 L 14.0625 14.394531 C 14.101129 14.145571 14.163296 13.905798 14.246094 13.673828 C 14.246303 13.67324 14.245884 13.672463 14.246094 13.671875 C 14.327619 13.443807 14.429034 13.228677 14.548828 13.021484 C 14.551309 13.017194 14.552191 13.012094 14.554688 13.007812 A 0.49960701 0.49845209 0 0 0 14.486328 13.005859 A 0.49960701 0.49845209 0 0 0 14.21875 13.091797 L 11.998047 14.568359 L 11.998047 13.507812 A 0.49960701 0.49845209 0 0 0 11.490234 13.001953 z M 8.4648438 13.009766 A 0.49960701 0.49845209 0 0 0 8.0546875 13.285156 L 6.0566406 17.273438 A 0.49960701 0.49845209 0 1 0 6.9492188 17.716797 L 7.5605469 16.498047 L 8.7363281 16.498047 L 9.015625 17.615234 A 0.49960701 0.49845209 0 1 0 9.984375 17.373047 L 8.984375 13.386719 A 0.49960701 0.49845209 0 0 0 8.515625 13.009766 A 0.49960701 0.49845209 0 0 0 8.4648438 13.009766 z M 8.3457031 14.933594 L 8.4863281 15.5 L 8.0605469 15.5 L 8.3457031 14.933594 z " />
  <path
     d="m18 12a3 3 0 0 0 -3 3v2h-1c-.554 0-1 .446-1 1v4c0 .554.446 1 1 1h8c.554 0 1-.446 1-1v-4c0-.554-.446-1-1-1h-1v-2a3 3 0 0 0 -3-3zm0 1a2 2 0 0 1 2 2v2h-4v-2a2 2 0 0 1 2-2z"
     fill="#eac282" />
</svg>
